public/assets/Icon/gridicons_location.svg

<svg width="24" height="25" viewBox="0 0 24 25" fill="none" xmlns="http://www.w3.org/2000/svg">
<path d="M19 9.54932C19 8.63006 18.8189 7.71981 18.4672 6.87053C18.1154 6.02125 17.5998 5.24958 16.9497 4.59957C16.2997 3.94956 15.5281 3.43394 14.6788 3.08216C13.8295 2.73038 12.9193 2.54932 12 2.54932C11.0807 2.54932 10.1705 2.73038 9.32122 3.08216C8.47194 3.43394 7.70026 3.94956 7.05025 4.59957C6.40024 5.24958 5.88463 6.02125 5.53284 6.87053C5.18106 7.71981 5 8.63006 5 9.54932C5 10.9363 5.41 12.2263 6.105 13.3143H6.097C8.457 17.0093 12 22.5493 12 22.5493L17.903 13.3143H17.896C18.6164 12.1907 18.9995 10.8841 19 9.54932ZM12 12.5493C11.2044 12.5493 10.4413 12.2332 9.87868 11.6706C9.31607 11.108 9 10.345 9 9.54932C9 8.75367 9.31607 7.99061 9.87868 7.428C10.4413 6.86539 11.2044 6.54932 12 6.54932C12.7956 6.54932 13.5587 6.86539 14.1213 7.428C14.6839 7.99061 15 8.75367 15 9.54932C15 10.345 14.6839 11.108 14.1213 11.6706C13.5587 12.2332 12.7956 12.5493 12 12.5493Z" fill="#F53838"/>
</svg>

<?xml version="1.0" encoding="utf-8"?>
<!-- Generator: Adobe Illustrator 27.9.0, SVG Export Plug-In . SVG Version: 6.00 Build 0)  -->
<svg version="1.1" id="Layer_1" xmlns="http://www.w3.org/2000/svg" xmlns:xlink="http://www.w3.org/1999/xlink" x="0px" y="0px"
	 viewBox="0 0 24 25" style="enable-background:new 0 0 24 25;" xml:space="preserve">
<style type="text/css">
	.st0{fill:#66B02D;}
</style>
<path class="st0" d="M19,9.5c0-0.9-0.2-1.8-0.5-2.7c-0.4-0.8-0.9-1.6-1.5-2.3c-0.6-0.7-1.4-1.2-2.3-1.5c-0.8-0.4-1.8-0.5-2.7-0.5
	s-1.8,0.2-2.7,0.5C8.5,3.4,7.7,3.9,7.1,4.6S5.9,6,5.5,6.9C5.2,7.7,5,8.6,5,9.5c0,1.4,0.4,2.7,1.1,3.8h0C8.5,17,12,22.5,12,22.5
	l5.9-9.2h0C18.6,12.2,19,10.9,19,9.5z M12,12.5c-0.8,0-1.6-0.3-2.1-0.9C9.3,11.1,9,10.3,9,9.5C9,8.8,9.3,8,9.9,7.4
	c0.6-0.6,1.3-0.9,2.1-0.9s1.6,0.3,2.1,0.9S15,8.8,15,9.5c0,0.8-0.3,1.6-0.9,2.1S12.8,12.5,12,12.5z"/>
</svg>
